Origami/16x16/apps/torchlight-2.svg

<svg width="16" height="16" version="1" xmlns="http://www.w3.org/2000/svg">
 <rect transform="matrix(0,-1,-1,0,0,0)" x="-16" y="-16" width="16" height="16" rx=".8" ry=".8" style="fill:#4f4f4f"/>
 <path d="m4 2.5v2.5c0-0.4 0.9858252-1 1.6-1h1.4v7.8l-1 1.2h4l-1-1.2v-5.6567496c0.3309508-2.3383408 1.303016-2.7274876 2.979666-3.1432504h-7.3011208z" style="fill:#ff8e19"/>
 <path d="m2 7h4l-1 1.2v4.6l1 1.2h-4l1-1.2v-4.6z" style="fill:#1289db"/>
 <path d="m10 7h4l-1 1.2v4.6l1 1.2h-4l1-1.2v-4.6z" style="fill:#1289db"/>
</svg>

<svg xmlns="http://www.w3.org/2000/svg" width="16" height="16" version="1">
 <rect style="fill:#4f4f4f" width="16" height="16" x="-16" y="-16" rx=".8" ry=".8" transform="matrix(0,-1,-1,0,0,0)"/>
 <path style="fill:#ff8e19" d="M 4,2.5 4,5 C 4,4.6 4.9858252,4 5.6,4 L 7,4 7,11.8 6,13 10,13 9,11.8 9,6.1432504 C 9.3309508,3.8049096 10.303016,3.4157628 11.979666,3 L 4.6785452,3 Z"/>
 <path style="fill:#1289db" d="M 2,7 6,7 5,8.2 5,12.8 6,14 2,14 3,12.8 3,8.2 Z"/>
 <path style="fill:#1289db" d="m 10,7 4,0 -1,1.2 0,4.6 1,1.2 -4,0 1,-1.2 0,-4.6 z"/>
</svg>
